images/facebook_blanc.svg

<svg viewBox="0 0 512 512" xmlns="http://www.w3.org/2000/svg"><path d="m75 512h167v-182h-60v-60h60v-75a75.08 75.08 0 0 1 75-75h75v60h-60a30 30 0 0 0 -30 30v60h87.29l-10 60h-77.29v182h135a75.08 75.08 0 0 0 75-75v-362a75.08 75.08 0 0 0 -75-75h-362a75.08 75.08 0 0 0 -75 75v362a75.08 75.08 0 0 0 75 75zm-45-437a45.05 45.05 0 0 1 45-45h362a45.05 45.05 0 0 1 45 45v362a45.05 45.05 0 0 1 -45 45h-105v-122h72.71l20-120h-92.71v-30h90v-120h-105a105.12 105.12 0 0 0 -105 105v45h-60v120h60v122h-137a45.05 45.05 0 0 1 -45-45z" fill="#fff"/></svg>

<svg id="Calque_1" data-name="Calque 1" xmlns="http://www.w3.org/2000/svg" viewBox="0 0 512 512"><defs><style>.cls-1{fill:#fff;}</style></defs><path class="cls-1" d="M75,512H242V330H182V270h60V195a75.08,75.08,0,0,1,75-75h75v60H332a30,30,0,0,0-30,30v60h87.29l-10,60H302V512H437a75.08,75.08,0,0,0,75-75V75A75.08,75.08,0,0,0,437,0H75A75.08,75.08,0,0,0,0,75V437A75.08,75.08,0,0,0,75,512ZM30,75A45.05,45.05,0,0,1,75,30H437a45.05,45.05,0,0,1,45,45V437a45.05,45.05,0,0,1-45,45H332V360h72.71l20-120H332V210h90V90H317A105.12,105.12,0,0,0,212,195v45H152V360h60V482H75a45.05,45.05,0,0,1-45-45Z"/></svg>
